_src/static/img/sprite/vk.svg

<svg width="23" height="14" viewBox="0 0 23 14" xmlns="http://www.w3.org/2000/svg">
<path d="M12.3902 13.1576C12.9519 13.1576 13.1815 12.7831 13.1751 12.3136C13.1465 10.5454 13.8336 9.59355 15.0742 10.8341C16.4467 12.2066 16.7308 13.1576 18.3975 13.1576H21.3491C22.0943 13.1576 22.3876 12.9177 22.3876 12.5414C22.3876 11.7454 21.077 10.3407 19.9664 9.30946C18.4113 7.86596 18.3385 7.83183 19.6777 6.0941C21.3389 3.93669 23.512 1.17236 21.5898 1.17236H17.9179C17.2058 1.17236 17.1542 1.57359 16.9005 2.17128C15.9828 4.33607 14.2386 7.14006 13.5763 6.71116C12.8836 6.26381 13.2009 4.49195 13.2535 1.8586C13.2673 1.16314 13.2636 0.686278 12.2011 0.439085C11.6209 0.305342 11.0564 0.25 10.5325 0.25C8.43598 0.25 6.98971 1.12901 7.81154 1.28213C9.26057 1.55238 9.12129 4.68749 8.78371 6.04152C8.19524 8.39909 5.98341 4.17466 5.06197 2.07075C4.83968 1.56529 4.77143 1.17236 3.97819 1.17236H0.9759C0.522097 1.17236 0.25 1.31994 0.25 1.6483C0.25 2.20357 2.9802 7.84659 5.5868 10.6598C8.12883 13.4038 10.6413 13.1576 12.3902 13.1576Z" fill="white"/>
</svg>

<svg width="23" height="14" xmlns="http://www.w3.org/2000/svg"><path d="M12.39 13.158c.562 0 .791-.375.785-.844-.029-1.769.659-2.72 1.9-1.48 1.372 1.373 1.656 2.324 3.323 2.324h2.951c.745 0 1.039-.24 1.039-.617 0-.796-1.311-2.2-2.422-3.232-1.555-1.443-1.628-1.477-.288-3.215 1.66-2.157 3.834-4.922 1.912-4.922h-3.672c-.712 0-.764.402-1.017 1-.918 2.164-2.662 4.968-3.325 4.54-.692-.448-.375-2.22-.322-4.853.013-.696.01-1.173-1.053-1.42A7.444 7.444 0 0010.533.25c-2.097 0-3.543.879-2.721 1.032 1.449.27 1.31 3.405.972 4.76-.589 2.357-2.8-1.867-3.722-3.971-.222-.506-.29-.899-1.084-.899H.976c-.454 0-.726.148-.726.476 0 .556 2.73 6.199 5.337 9.012 2.542 2.744 5.054 2.498 6.803 2.498z" fill="#fff"/></svg>
